; generated by Slic3r 1.3.1-dev (Build 18ddd3a36dc69d81fb9b7440498bff9e1dde8b7e) on 2022-07-27 at 15:49:21

; external perimeters extrusion width = 0.44mm (2.38mm^3/s)
; perimeters extrusion width = 0.56mm (3.10mm^3/s)
; infill extrusion width = 0.50mm (4.57mm^3/s)
; solid infill extrusion width = 0.56mm (6.20mm^3/s)
; top infill extrusion width = 0.56mm (4.14mm^3/s)
; support material extrusion width = 0.44mm (4.76mm^3/s)

M107
M190 S60 ; set bed temperature and wait for it to be reached
M104 S200 ; set temperature
G28
G90
G1 Z5 F210
G32 S1
; Filament gcode

M109 S200 ; set temperature and wait for it to be reached
G21 ; set units to millimeters
G90 ; use absolute coordinates
M83 ; use relative distances for extrusion
G1 E-1.00000 F1800.00000
G1 Z0.300 F4200.000
G1 X51.829 Y62.627 F4200.000
G1 E1.00000 F1800.00000
G1 F1080.000
G1 X54.081 Y61.671 E0.16348
G1 X55.860 Y61.458 E0.11968
G1 X95.256 Y61.458 E2.63185
G1 X98.381 Y62.137 E0.21367
G1 X148.118 Y84.808 E3.65157
G1 X150.150 Y86.171 E0.16348
G1 X151.638 Y88.114 E0.16348
G1 X152.426 Y90.431 E0.16348
G1 X152.528 Y91.665 E0.08274
G1 X152.528 Y96.248 E0.30616
G1 X152.130 Y98.662 E0.16348
G1 X150.980 Y100.822 E0.16348
G1 X148.355 Y102.991 E0.22748
G1 X79.276 Y137.442 E5.15692
G1 X75.913 Y138.234 E0.23082
G1 X75.203 Y138.234 E0.04742
G1 X72.788 Y137.837 E0.16348
G1 X70.628 Y136.687 E0.16348
G1 X69.550 Y135.682 E0.09846
G1 X69.081 Y135.150 E0.04739
G1 X67.536 Y132.398 E0.21080
G1 X60.548 Y109.859 E1.57646
G1 X48.658 Y71.209 E2.70144
G1 X48.327 Y68.784 E0.16348
G1 X48.792 Y66.382 E0.16348
G1 X50.001 Y64.254 E0.16348
G1 X51.784 Y62.667 E0.15947
G1 E-1.00000 F1800.00000
G1 X75.676 Y129.619 F4200.000
G1 E1.00000 F1800.00000
G1 F540.000
G1 X75.439 Y129.619 E0.01584
G1 X68.549 Y107.397 E1.55430
G1 X56.991 Y69.829 E2.62580
G1 X94.124 Y69.829 E2.48069
G1 X82.568 Y107.394 E2.62564
G1 X80.627 Y113.528 E0.42981
G1 X75.694 Y129.562 E1.12066
G1 X75.338 Y130.399 F4200.000
G1 F540.000
G1 X75.001 Y130.016 E0.03405
G1 X68.037 Y107.555 E1.57103
G1 X56.266 Y69.293 E2.67429
G1 X94.850 Y69.293 E2.57758
G1 X83.079 Y107.554 E2.67423
G1 X81.138 Y113.688 E0.42981
G1 X76.114 Y130.017 E1.14131
G1 X75.777 Y130.399 E0.03402
G1 X75.398 Y130.399 E0.02532
G1 X75.294 Y130.001 F4200.000
G1 E-1.00000 F1800.00000
G1 X75.348 Y128.396 F4200.000
G1 E1.00000 F1800.00000
G1 F1080.000
G1 X75.764 Y127.979 E0.03972
G1 X76.104 Y126.875 E0.07785
G1 X75.167 Y127.813 E0.08934
G1 X74.986 Y127.229 E0.04117
G1 X76.444 Y125.772 E0.13897
G1 X76.783 Y124.668 E0.07785
G1 X74.805 Y126.646 E0.18859
G1 X74.624 Y126.063 E0.04117
G1 X77.123 Y123.564 E0.23821
G1 X77.463 Y122.460 E0.07785
G1 X74.443 Y125.479 E0.28783
G1 X74.262 Y124.896 E0.04117
G1 X77.802 Y121.356 E0.33745
G1 X78.142 Y120.252 E0.07785
G1 X74.081 Y124.312 E0.38708
G1 X73.901 Y123.729 E0.04117
G1 X78.482 Y119.148 E0.43670
G1 X78.822 Y118.044 E0.07785
G1 X73.720 Y123.146 E0.48632
G1 X73.539 Y122.562 E0.04117
G1 X79.161 Y116.940 E0.53594
G1 X79.501 Y115.836 E0.07785
G1 X73.358 Y121.979 E0.58557
G1 X73.177 Y121.396 E0.04117
G1 X79.841 Y114.732 E0.63519
G1 X80.180 Y113.628 E0.07785
G1 X72.996 Y120.812 E0.68481
G1 X72.815 Y120.229 E0.04117
G1 X80.528 Y112.516 E0.73521
G1 X80.882 Y111.398 E0.07904
G1 X72.634 Y119.645 E0.78617
G1 X72.453 Y119.062 E0.04117
G1 X81.236 Y110.280 E0.83714
G1 X81.589 Y109.162 E0.07904
G1 X72.273 Y118.479 E0.88811
G1 X72.092 Y117.895 E0.04117
G1 X81.943 Y108.044 E0.93907
G1 X82.296 Y106.927 E0.07894
G1 X71.911 Y117.312 E0.98992
G1 X71.730 Y116.729 E0.04117
G1 X82.635 Y105.823 E1.03953
G1 X82.975 Y104.719 E0.07785
G1 X71.549 Y116.145 E1.08915
G1 X71.368 Y115.562 E0.04117
G1 X83.314 Y103.616 E1.13876
G1 X83.654 Y102.512 E0.07785
G1 X71.187 Y114.978 E1.18837
G1 X71.006 Y114.395 E0.04117
G1 X83.994 Y101.408 E1.23799
G1 X84.333 Y100.304 E0.07785
G1 X70.825 Y113.812 E1.28760
G1 X70.645 Y113.228 E0.04117
G1 X84.673 Y99.200 E1.33721
G1 X85.012 Y98.096 E0.07785
G1 X70.464 Y112.645 E1.38683
G1 X70.283 Y112.062 E0.04117
G1 X85.352 Y96.992 E1.43644
G1 X85.691 Y95.889 E0.07785
G1 X70.102 Y111.478 E1.48605
G1 X69.921 Y110.895 E0.04117
G1 X86.031 Y94.785 E1.53567
G1 X86.371 Y93.681 E0.07785
G1 X69.740 Y110.311 E1.58528
G1 X69.559 Y109.728 E0.04117
G1 X86.710 Y92.577 E1.63489
G1 X87.050 Y91.473 E0.07785
G1 X69.378 Y109.145 E1.68451
G1 X69.197 Y108.561 E0.04117
G1 X87.389 Y90.369 E1.73412
G1 X87.729 Y89.266 E0.07785
G1 X69.017 Y107.978 E1.78373
G1 X68.836 Y107.394 E0.04117
G1 X88.069 Y88.162 E1.83334
G1 X88.408 Y87.058 E0.07785
G1 X68.656 Y106.810 E1.88285
G1 X68.476 Y106.225 E0.04122
G1 X88.748 Y85.954 E1.93236
G1 X89.087 Y84.850 E0.07785
G1 X68.296 Y105.641 E1.98187
G1 X68.117 Y105.057 E0.04122
G1 X89.427 Y83.746 E2.03138
G1 X89.766 Y82.642 E0.07785
G1 X67.937 Y104.472 E2.08089
G1 X67.757 Y103.888 E0.04122
G1 X90.106 Y81.539 E2.13040
G1 X90.446 Y80.435 E0.07785
G1 X67.577 Y103.303 E2.17991
G1 X67.397 Y102.719 E0.04122
G1 X90.785 Y79.331 E2.22941
G1 X91.125 Y78.227 E0.07785
G1 X67.218 Y102.134 E2.27892
G1 X67.038 Y101.550 E0.04122
G1 X91.464 Y77.123 E2.32843
G1 X91.804 Y76.019 E0.07785
G1 X66.858 Y100.965 E2.37794
G1 X66.678 Y100.381 E0.04122
G1 X92.144 Y74.915 E2.42745
G1 X92.483 Y73.812 E0.07785
G1 X66.498 Y99.796 E2.47696
G1 X66.319 Y99.212 E0.04122
G1 X92.823 Y72.708 E2.52647
G1 X93.162 Y71.604 E0.07785
G1 X66.139 Y98.627 E2.57598
G1 X65.959 Y98.043 E0.04122
G1 X93.502 Y70.500 E2.62549
G1 X93.608 Y70.156 E0.02424
G1 X93.081 Y70.156 E0.03547
G1 X65.779 Y97.458 E2.60255
G1 X65.599 Y96.874 E0.04122
G1 X92.317 Y70.156 E2.54683
G1 X91.553 Y70.156 E0.05151
G1 X65.420 Y96.290 E2.49112
G1 X65.240 Y95.705 E0.04122
G1 X90.789 Y70.156 E2.43541
G1 X90.024 Y70.156 E0.05151
G1 X65.060 Y95.121 E2.37969
G1 X64.880 Y94.536 E0.04122
G1 X89.260 Y70.156 E2.32398
G1 X88.496 Y70.156 E0.05151
G1 X64.700 Y93.952 E2.26827
G1 X64.521 Y93.367 E0.04122
G1 X87.732 Y70.156 E2.21255
G1 X86.967 Y70.156 E0.05151
G1 X64.341 Y92.783 E2.15684
G1 X64.161 Y92.198 E0.04122
G1 X86.203 Y70.156 E2.10113
G1 X85.439 Y70.156 E0.05151
G1 X63.981 Y91.614 E2.04541
G1 X63.801 Y91.029 E0.04122
G1 X84.674 Y70.156 E1.98970
G1 X83.910 Y70.156 E0.05151
G1 X63.622 Y90.445 E1.93399
G1 X63.442 Y89.860 E0.04122
G1 X83.146 Y70.156 E1.87827
G1 X82.382 Y70.156 E0.05151
G1 X63.262 Y89.276 E1.82256
G1 X63.082 Y88.691 E0.04122
G1 X81.617 Y70.156 E1.76685
G1 X80.853 Y70.156 E0.05151
G1 X62.902 Y88.107 E1.71113
G1 X62.723 Y87.523 E0.04122
G1 X80.089 Y70.156 E1.65542
G1 X79.325 Y70.156 E0.05151
G1 X62.543 Y86.938 E1.59970
G1 X62.363 Y86.354 E0.04122
G1 X78.560 Y70.156 E1.54399
G1 X77.796 Y70.156 E0.05151
G1 X62.183 Y85.769 E1.48828
G1 X62.003 Y85.185 E0.04122
G1 X77.032 Y70.156 E1.43256
G1 X76.267 Y70.156 E0.05151
G1 X61.824 Y84.600 E1.37685
G1 X61.644 Y84.016 E0.04122
G1 X75.503 Y70.156 E1.32114
G1 X74.739 Y70.156 E0.05151
G1 X61.464 Y83.431 E1.26542
G1 X61.284 Y82.847 E0.04122
G1 X73.975 Y70.156 E1.20971
G1 X73.210 Y70.156 E0.05151
G1 X61.104 Y82.262 E1.15400
G1 X60.925 Y81.678 E0.04122
G1 X72.446 Y70.156 E1.09828
G1 X71.682 Y70.156 E0.05151
G1 X60.745 Y81.093 E1.04257
G1 X60.565 Y80.509 E0.04122
G1 X70.918 Y70.156 E0.98686
G1 X70.153 Y70.156 E0.05151
G1 X60.385 Y79.925 E0.93114
G1 X60.205 Y79.340 E0.04122
G1 X69.389 Y70.156 E0.87543
G1 X68.625 Y70.156 E0.05151
G1 X60.026 Y78.756 E0.81972
G1 X59.846 Y78.171 E0.04122
G1 X67.861 Y70.156 E0.76400
G1 X67.096 Y70.156 E0.05151
G1 X59.666 Y77.587 E0.70829
G1 X59.486 Y77.002 E0.04122
G1 X66.332 Y70.156 E0.65258
G1 X65.568 Y70.156 E0.05151
G1 X59.306 Y76.418 E0.59686
G1 X59.126 Y75.833 E0.04122
G1 X64.803 Y70.156 E0.54115
G1 X64.039 Y70.156 E0.05151
G1 X58.947 Y75.249 E0.48544
G1 X58.767 Y74.664 E0.04122
G1 X63.275 Y70.156 E0.42972
G1 X62.511 Y70.156 E0.05151
G1 X58.587 Y74.080 E0.37401
G1 X58.407 Y73.495 E0.04122
G1 X61.746 Y70.156 E0.31830
G1 X60.982 Y70.156 E0.05151
G1 X58.227 Y72.911 E0.26258
G1 X58.048 Y72.326 E0.04122
G1 X60.218 Y70.156 E0.20687
G1 X59.454 Y70.156 E0.05151
G1 X57.868 Y71.742 E0.15116
G1 X57.688 Y71.158 E0.04122
G1 X58.689 Y70.156 E0.09544
G1 X57.925 Y70.156 E0.05151
G1 X57.508 Y70.573 E0.03971
G1 E-1.00000 F1800.00000
G1 Z0.300 F4200.000
G1 X89.288 Y91.640 F4200.000
G1 E1.00000 F1800.00000
G1 F1080.000
G1 X89.288 Y92.621 E0.06550
G1 X90.359 Y92.677 E0.07166
G1 X90.359 Y90.812 E0.12457
G1 X91.430 Y90.835 E0.07158
G1 X91.430 Y92.733 E0.12676
G1 X92.501 Y92.789 E0.07166
G1 X92.501 Y90.859 E0.12895
G1 X93.573 Y90.882 E0.07158
G1 X93.573 Y92.845 E0.13114
G1 X94.644 Y92.901 E0.07166
G1 X94.644 Y90.927 E0.13183
G1 X95.715 Y90.983 E0.07166
G1 X95.715 Y92.957 E0.13183
G1 X96.786 Y93.013 E0.07166
G1 X96.786 Y90.869 E0.14325
G1 X97.858 Y90.892 E0.07158
G1 X97.858 Y93.069 E0.14544
G1 X98.929 Y93.125 E0.07166
G1 X98.929 Y90.915 E0.14764
G1 X100.000 Y90.938 E0.07158
G1 X100.000 Y93.181 E0.14983
G1 X101.071 Y93.237 E0.07166
G1 X101.071 Y90.961 E0.15203
G1 X102.142 Y90.985 E0.07158
G1 X102.142 Y96.928 E0.39704
G1 X103.214 Y96.905 E0.07158
G1 X103.214 Y91.008 E0.39394
G1 X104.285 Y91.031 E0.07158
G1 X104.285 Y96.882 E0.39084
G1 X105.356 Y96.858 E0.07158
G1 X105.356 Y91.054 E0.38774
G1 X106.427 Y91.078 E0.07158
G1 X106.427 Y93.034 E0.13072
G1 X107.499 Y93.090 E0.07166
G1 X107.499 Y91.117 E0.13185
G1 X108.570 Y91.173 E0.07166
G1 X108.570 Y93.146 E0.13185
G1 X109.641 Y93.203 E0.07166
G1 X109.641 Y91.064 E0.14285
G1 X110.712 Y91.088 E0.07158
G1 X110.712 Y93.259 E0.14504
G1 E-1.00000 F1800.00000
G1 X106.427 Y94.878 F4200.000
G1 E1.00000 F1800.00000
G1 F1080.000
G1 X106.427 Y96.835 E0.13074
G1 X107.499 Y96.796 E0.07161
G1 X107.499 Y94.822 E0.13185
G1 X108.570 Y94.766 E0.07166
G1 X108.570 Y96.740 E0.13185
G1 X109.345 Y96.699 E0.05186
G4 P6
G1 X109.351 Y96.855 E0.01039
G4 P41
G1 X109.641 Y96.848 E0.01939
G1 X109.641 Y94.710 E0.14284
G1 X110.712 Y94.654 E0.07166
G1 X110.712 Y96.825 E0.14504
G1 X111.784 Y96.802 E0.07158
G1 X111.784 Y91.111 E0.38020
G1 X112.855 Y91.134 E0.07158
G1 X112.855 Y96.779 E0.37709
G1 X113.926 Y96.755 E0.07158
G1 X113.926 Y91.157 E0.37399
G1 X114.997 Y91.180 E0.07158
G1 X114.997 Y96.732 E0.37089
G1 X116.069 Y96.709 E0.07158
G1 X116.069 Y94.857 E0.12374
G1 X115.627 Y94.880 E0.02955
G4 P25
G1 X115.605 Y94.048 E0.05559
G1 X115.632 Y93.033 E0.06783
G1 X116.069 Y93.056 E0.02923
G4 P25
G1 X116.069 Y91.204 E0.12373
G1 X117.140 Y91.227 E0.07158
G1 X117.140 Y93.112 E0.12593
G1 X118.211 Y93.168 E0.07166
G1 X118.211 Y91.250 E0.12812
G1 X119.282 Y91.273 E0.07158
G1 X119.282 Y93.224 E0.13032
G1 X120.354 Y93.280 E0.07166
G1 X120.354 Y91.306 E0.13187
G1 X121.425 Y91.362 E0.07166
G1 X121.425 Y96.550 E0.34661
G1 X122.411 Y96.499 E0.06599
G1 X122.417 Y96.654 E0.01039
G4 P41
G1 X122.496 Y96.652 E0.00528
G1 X122.496 Y91.260 E0.36024
G1 X123.567 Y91.283 E0.07158
G1 X123.567 Y96.629 E0.35714
G1 X124.638 Y96.606 E0.07158
G1 X124.638 Y91.307 E0.35404
G1 X125.710 Y91.330 E0.07158
G1 X125.710 Y93.077 E0.11674
G1 X126.781 Y93.133 E0.07166
G1 X126.781 Y91.353 E0.11894
G1 X127.852 Y91.376 E0.07158
G1 X127.852 Y93.189 E0.12113
G1 X128.923 Y93.246 E0.07166
G1 X128.923 Y91.399 E0.12333
G1 X129.995 Y91.423 E0.07158
G1 X129.995 Y96.490 E0.33852
G1 X131.066 Y96.467 E0.07158
G1 X131.066 Y91.446 E0.33542
G1 X132.137 Y91.469 E0.07158
G1 X132.137 Y96.444 E0.33232
G1 X133.208 Y96.417 E0.07159
G1 X133.208 Y91.495 E0.32880
G1 X134.280 Y91.551 E0.07166
G1 X134.280 Y93.043 E0.09962
G1 X135.351 Y93.099 E0.07166
G1 X135.351 Y91.607 E0.09963
G1 X135.479 Y91.614 E0.00859
G4 P42
G1 X135.485 Y91.459 E0.01039
G4 P41
G1 X136.422 Y91.479 E0.06261
G1 X136.422 Y93.155 E0.11195
G1 X137.493 Y93.211 E0.07166
G1 X137.493 Y91.502 E0.11414
G1 X138.565 Y91.526 E0.07158
G1 X138.565 Y93.267 E0.11634
G1 E-1.00000 F1800.00000
G1 X134.280 Y94.870 F4200.000
G1 E1.00000 F1800.00000
G1 F1080.000
G1 X134.280 Y96.361 E0.09963
G1 X135.351 Y96.305 E0.07166
G1 X135.351 Y94.814 E0.09963
G1 X136.422 Y94.758 E0.07166
G1 X136.422 Y96.433 E0.11195
G1 X137.493 Y96.410 E0.07158
G1 X137.493 Y94.702 E0.11414
G1 X138.565 Y94.646 E0.07166
G1 X138.565 Y96.387 E0.11633
G1 X139.636 Y96.364 E0.07158
G1 X139.636 Y91.549 E0.32167
G1 X140.707 Y91.572 E0.07158
G1 X140.707 Y96.341 E0.31857
G1 X141.778 Y96.317 E0.07158
G1 X141.778 Y91.595 E0.31547
G1 X142.850 Y91.618 E0.07158
G1 X142.850 Y96.294 E0.31237
G1 X143.921 Y96.271 E0.07158
G1 X143.921 Y91.642 E0.30926
G1 X144.992 Y91.665 E0.07158
G1 X144.992 Y96.248 E0.30616
G1 E-1.00000 F1800.00000
G1 X128.923 Y96.513 F4200.000
G1 E1.00000 F1800.00000
G1 F1080.000
G1 X128.923 Y94.667 E0.12333
G1 X127.852 Y94.723 E0.07166
G1 X127.852 Y96.536 E0.12113
G1 X126.781 Y96.560 E0.07158
G1 X126.781 Y94.779 E0.11894
G1 X125.710 Y94.835 E0.07166
G1 X125.710 Y96.583 E0.11675
G1 X124.638 Y96.606 E0.07158
G1 E-1.00000 F1800.00000
G1 X120.354 Y96.606 F4200.000
G1 E1.00000 F1800.00000
G1 F1080.000
G1 X120.354 Y94.633 E0.13187
G1 X119.282 Y94.689 E0.07166
G1 X119.282 Y96.639 E0.13032
G1 X118.211 Y96.663 E0.07158
G1 X118.211 Y94.745 E0.12813
G1 X117.140 Y94.801 E0.07166
G1 X117.140 Y96.686 E0.12594
G1 X116.069 Y96.709 E0.07158
G1 E-1.00000 F1800.00000
G1 X101.071 Y96.951 F4200.000
G1 E1.00000 F1800.00000
G1 F1080.000
G1 X101.071 Y94.675 E0.15203
G1 X100.000 Y94.732 E0.07166
G1 X100.000 Y96.974 E0.14984
G1 X98.929 Y96.998 E0.07158
G1 X98.929 Y94.788 E0.14764
G1 X97.858 Y94.844 E0.07166
G1 X97.858 Y97.021 E0.14545
G1 X96.786 Y97.044 E0.07158
G1 X96.786 Y94.900 E0.14326
G1 X95.715 Y94.956 E0.07166
G1 X95.715 Y96.929 E0.13184
G1 X94.644 Y96.985 E0.07166
G1 X94.644 Y95.012 E0.13184
G1 X93.573 Y95.068 E0.07166
G1 X93.573 Y97.031 E0.13115
G1 X92.501 Y97.054 E0.07158
G1 X92.501 Y95.124 E0.12896
G1 X91.430 Y95.180 E0.07166
G1 X91.430 Y97.077 E0.12677
G1 X90.359 Y97.101 E0.07158
G1 X90.359 Y95.236 E0.12458
G1 X89.288 Y95.292 E0.07166
G1 X89.288 Y97.124 E0.12239
G1 X88.216 Y97.147 E0.07158
G1 X88.216 Y95.348 E0.12020
G1 E-1.00000 F1800.00000
G1 Z0.500 F4200.000
G1 X75.421 Y130.216 F4200.000
G1 E1.00000 F1800.00000
G1 F1800.000
G1 X75.134 Y129.891 E0.01865
G1 X56.602 Y69.670 E2.70902
G1 X94.513 Y69.670 E1.63000
G1 X75.982 Y129.891 E2.70902
G1 X75.695 Y130.216 E0.01866
G1 X75.481 Y130.216 E0.00920
G1 E-1.00000 F1800.00000
G1 X55.984 Y69.213 F4200.000
G1 E1.00000 F1800.00000
G1 F1800.000
G1 X95.132 Y69.213 E1.29259
G1 X76.390 Y130.119 E2.10401
G1 X75.901 Y130.673 E0.02439
G1 X75.215 Y130.673 E0.02267
G1 X74.726 Y130.119 E0.02439
G1 X56.001 Y69.271 E2.10203
G1 X56.348 Y69.377 F4200.000
G1 E-1.00000 F1800.00000
G1 X87.519 Y93.956 F4200.000
G1 E1.00000 F1800.00000
G1 F1800.000
G1 X88.623 Y93.956 E0.03060
G1 F1800.000
G1 X89.726 Y93.956 E0.02168
G1 F1800.000
G1 X90.830 Y93.956 E0.01276
G1 E-1.00000 F1800.00000
G1 X94.014 Y70.389 F4200.000
G1 E1.00000 F1800.00000
G1 F3600.000
G1 X93.612 Y69.986 E0.02448
G1 X92.880 Y69.986 E0.03149
G4 P28
G1 X93.842 Y70.948 E0.05854
G4 P27
G1 X93.670 Y71.508 E0.02520
G4 P17
G1 X92.148 Y69.986 E0.09260
G1 X91.417 Y69.986 E0.03149
G4 P1
G1 X93.498 Y72.068 E0.12666
G4 P0
G1 X93.326 Y72.627 E0.02520
G1 X90.685 Y69.986 E0.16072
G1 X89.953 Y69.986 E0.03149
G1 X93.153 Y73.187 E0.19477
G1 X92.981 Y73.747 E0.02520
G1 X89.221 Y69.986 E0.22883
G1 X88.489 Y69.986 E0.03149
G1 X92.809 Y74.306 E0.26289
G1 X92.637 Y74.866 E0.02520
G1 X87.757 Y69.986 E0.29695
G1 X87.025 Y69.986 E0.03149
G1 X92.465 Y75.426 E0.33101
G1 X92.292 Y75.985 E0.02520
G1 X86.293 Y69.986 E0.36507
G1 X85.562 Y69.986 E0.03149
G1 X92.120 Y76.545 E0.39912
G1 X91.948 Y77.105 E0.02520
G1 X84.830 Y69.986 E0.43318
G1 X84.098 Y69.986 E0.03149
G1 X91.776 Y77.664 E0.46724
G1 X91.604 Y78.224 E0.02520
G1 X83.366 Y69.986 E0.50130
G1 X82.634 Y69.986 E0.03149
G1 X91.431 Y78.784 E0.53536
G1 X91.259 Y79.343 E0.02520
G1 X81.902 Y69.986 E0.56942
G1 X81.170 Y69.986 E0.03149
G1 X91.087 Y79.903 E0.60347
G1 X90.915 Y80.463 E0.02520
G1 X80.439 Y69.986 E0.63753
G1 X79.707 Y69.986 E0.03149
G1 X90.743 Y81.022 E0.67159
G1 X90.570 Y81.582 E0.02520
G1 X78.975 Y69.986 E0.70565
G1 X78.243 Y69.986 E0.03149
G1 X90.398 Y82.142 E0.73971
G1 X90.226 Y82.701 E0.02520
G1 X77.511 Y69.986 E0.77377
G1 X76.779 Y69.986 E0.03149
G1 X90.054 Y83.261 E0.80782
G1 X89.882 Y83.821 E0.02520
G1 X76.047 Y69.986 E0.84188
G1 X75.315 Y69.986 E0.03149
G1 X89.709 Y84.380 E0.87594
